X:585
M:C|
L:1/8
K:F
e|fcfa gdbg|fcfa gdde|fcfa gagc|Acfc Affe|fcfa gdbg|fcfa gdde|faga fgdf|
cAfc AFF||

